X:1
T:Tirana, 10.10.10.10
T:Ira David Sankey, 1896
T:Tirana, 10.10.10.10
T:Public Domain
C:Ira David Sankey, 1896
Z:Public Domain
%%score ( 1 2 ) ( 3 4 )
L:1/8
M:3/4
K:A
V:1 treble 
V:2 treble 
V:3 bass 
V:4 bass 
V:1
 [CE]2 [CA]2 [DB]2 | [Ec]3 [DB] [CA]2 | [DB]2 [CA]2 [EB]2 | [Ec]6 | [CE]2 [EA]2 [EB]2 | %5
 [Ec]3 [DB] [CA]2 | [FB]2 [EA]2 [DG]2 | [CA]6 | [Ec]2 [Ec]2 [Ec]2 | [Ge]3 [Gd] [GB]2 | %10
 A2 [CA]2 [FA]2 | [^Ec]6 | [FB]2 [FA]2 [DF]2 | [CE]3 [CA] [Ec]2 | [DB]2 [CA]2 [DG]2 | [CA]6 |] %16
V:2
 x6 | x6 | x6 | x6 | x6 | x6 | x6 | x6 | x6 | x6 | A2 x4 | x6 | x6 | x6 | x6 | x6 |] %16
V:3
 [A,,A,]2 [A,,E,]2 [A,,E,]2 | [A,,A,]3 [A,,A,] [A,,A,]2 | [E,G,]2 [E,A,]2 [E,G,]2 | [A,,A,]6 | %4
 [A,,A,]2 [C,A,]2 [E,G,]2 | A,3 A, A,2 | [D,D]2 [E,C]2 [E,B,]2 | [A,,A,]6 | A,2 A,2 A,2 | %9
 [E,B,]3 [E,B,] [E,D]2 | [F,C]2 [F,A,]2 [D,F,]2 | [C,G,]6 | [D,F,]2 [D,A,]2 [D,A,]2 | %13
 [A,,A,]3 [A,,E,] [A,,A,]2 | [D,F,]2 E,2 [E,B,]2 | [A,,A,]6 |] %16
V:4
 x6 | x6 | x6 | x6 | x6 | A,3 A, A,2 | x6 | x6 | A,2 A,2 A,2 | x6 | x6 | x6 | x6 | x6 | x2 E,2 x2 | %15
 x6 |] %16

